!!!PDT:	1923
!!!LANG: Non-Tone
!!!LING_GROUP: Siouan
!!!REG: Dakotas
!!!COM: Anon.
!!!OTL: He Stared At Me
!!!ODT: <1918//
!!!MPN: Wopite [Scattered Corn, Mrs. Holding Eagle]
!!!MLC: Fort Berthold Reservation, North Dakota, United States of America
!! Song was recorded during either the summer of 1912, 1915, or 1918.
!!!AGN: monody
!!!SOCIAL_FUNCTION: Mandan Women's Society
!!!AMT: irregular
!!!RWG: Transcribed pitches, durations, and meters are only approximate.
!! Drum not recorded.
**kern
*ICvox
*Ifemale
*clefG2
*k[b-e-]
*M2/4
*MM80
=1-
4g
4g
=
4b-
(12cc
12b-
12b-)
*M3/4
=
4g
16g
8.f
8.d
16f
*M2/4
=
4f
16g
8.f
=
4d
16e
8.d
=
16e
8.d
4d
=
4.r
8g
*M3/4
=
8g
8g
8.g
16b-
8g
8g
*M2/4
=
4b-
(12cc
12b-)
12b-
*M3/4
=
4g
(12g
12f)
12f
8.d
16f
=
4f
16g
8.f
=
4d
16e
8.d
=
16e
8.d
4d
==
*-
!!!CNT: Mandan
!!!TXO: Mandan
!!!OCY: United States
!!!OCL: Frances Densmore
!!!YOR: Frances Densmore, "Mandan and Hidatsa Music",
!!!YOR: Bulletin 80, page 96, No. 38
!!!PPR: Smithsonian Institution, Bureau of American Ethnology
!!!PPR: Government Printing Office
!!!PDT: 1923
!!!PPP: Washington, DC, United States of America
!!!YEC: Electronic Copyright 2000 David Huron
!!!YER: August 2000
!!!YEN: United States of America
!!!ENC: David Huron
!!!RDT: August 16, 2000
!!!EEV: Release 1.0
!!!AIN: tom, vox
